source/images/icons/soundcloud.svg

<svg height="40" viewBox="0 0 40 40" width="40" xmlns="http://www.w3.org/2000/svg"><g fill="#fff" fill-rule="evenodd" transform="translate(0 10)"><path d="m8.26325123 5.84c-.16098522 0-.29359606.13142857-.30147783.29871921l-.31172414 6.58463059.31172414 4.2551724c.00788177.1659113.14049261.2975369.30147783.2975369.15980296 0 .29201971-.1316256.30167488-.2985222v.0009853l.35270936-4.2551724-.35270936-6.58463059c-.00965517-.16729064-.14187192-.29871921-.30167488-.29871921z"/><path d="m19.8305419 1.14837438c-.2943843 0-.5361577.24197045-.5404926.53871922l-.2208867 11.0415764.2212807 4.0074876c.0039409.2924138.2457143.5341872.5400986.5341872.293399 0 .5351724-.2417734.5393103-.5385221v.004729l.2401971-4.0078817-.2401971-11.04236458c-.0041379-.29596059-.2459113-.53793104-.5393103-.53793104z"/><path d="m34.9485714 7.50226601c-.6715271 0-1.3123152.13615764-1.8957635.38049261-.3903448-4.41753695-4.0945813-7.88275862-8.6130049-7.88275862-1.1058129 0-2.1832513.21753695-3.1353695.58600985-.3702463.14305419-.4683744.29044335-.4719212.57615764v15.55665021c.0039409.3000986.2362562.5499508.5292611.5793104.0126108.0013793 13.4993103.0080788 13.586798.0080788 2.7069951 0 4.9014779-2.1948769 4.9014779-4.902266 0-2.70719213-2.1944828-4.90167489-4.9014779-4.90167489z"/><path d="m13.5558621 16.8851232v-.0019705l.2825615-4.1576355-.2825615-9.06088666c-.0066995-.22541872-.1842365-.40157635-.4035468-.40157635-.2200986 0-.3976355.17615763-.4039409.40157635l-.2510345 9.06088666.2514286 4.1592119c.0059113.222463.1834482.3986207.4035468.3986207.2193103 0 .395862-.1761577.4035468-.399803z"/><path d="m9.88039409 17.2837438c.17911331 0 .32689651-.1458128.33556651-.3324138l.329064-4.2271921-.329064-8.09024627c-.00867-.18679803-.1564532-.33280789-.33556651-.33280789-.1808867 0-.32807882.14600986-.33615764.33280789 0 .00019704-.29142857 8.09024627-.29142857 8.09024627l.29182266 4.2287685c.00768473.1850246.15487685.3308374.33576355.3308374z"/><path d="m16.4762562 3.74955665c-.2597045 0-.4671922.20630542-.4723153.46975369l-.2108375 8.50738916.2108375 4.093399c.0051231.2608867.2126108.4667981.4723153.4667981.2587192 0 .4654187-.2059114.471133-.4695567v.0035468l.2364532-4.0937931-.2364532-8.50837439c-.0057143-.26285714-.2124138-.46916256-.471133-.46916256z"/><path d="m3.48965517 17.0074877c.10364532 0 .18738916-.0819705.19960591-.1950739l.42246306-4.0918227-.42206897-4.24650243c-.01261084-.11330049-.09635468-.19527094-.2-.19527094-.10502463 0-.1893596.08236454-.19980295.19527094 0 .00039409-.37182266 4.24650243-.37182266 4.24650243l.37182266 4.0906404c.01044335.1142857.09477832.1962562.19980295.1962562z"/><path d="m6.65931034 17.2405911c.14206897 0 .25674877-.1134975.26738917-.2630542l.37615763-4.2561576-.37615763-4.0484729c-.01024631-.1493596-.12492611-.26226601-.26738917-.26226601-.1440394 0-.25871921.1133005-.26778325.26384237l-.33142857 4.04689654.33142857 4.2557636c.00906404.1499507.12374385.2634482.26778325.2634482z"/><path d="m14.8078818 17.2792118c.2384236 0 .431133-.1917241.4374384-.435665v.0029557l.2599015-4.1201971-.2599015-8.82995072c-.0063054-.24433498-.1990148-.43527094-.4374384-.43527094-.2401971 0-.4327094.19133005-.4380296.43527094l-.231133 8.82995072.2315271 4.1192118c.0049261.2419705.1974384.4336946.4376355.4336946z"/><path d="m18.1568473 17.2953695c.2740887 0 .5006896-.226404.5056158-.5038424v.0031527-.0031527l.213399-4.0636453-.213399-10.124335c-.0047291-.27743843-.2315271-.50344828-.5056158-.50344828-.2746798 0-.5014778.22600985-.5054187.50403941l-.190936 10.12039407c0 .0065025.190936 4.0697537.190936 4.0697537.0039409.2746798.2307389.5010838.5054187.5010838z"/><path d="m11.5099507 17.2752709c.1992119 0 .3611823-.1607881.3696552-.3666995l.3060099-4.1836453-.3060099-8.76571428c-.0080788-.20591133-.1704433-.3666995-.3696552-.3666995-.2007881 0-.3631527.16118226-.3698522.36709359 0 .00039409-.27133 8.76532019-.27133 8.76532019l.27133 4.1852217c.0066995.2039409.1690641.3651231.3698522.3651231z"/><path d="m5.06817734 8.12847291c-.12334975 0-.22423645.09871921-.23389163.23014778l-.35152709 4.36275861.35152709 4.2206897c.00965518.1304433.11054188.2293596.23389163.2293596.12236453 0 .2226601-.0989163.23349754-.2293596l.39940886-4.2206897-.39940886-4.36354679c-.01083744-.13064039-.11113301-.2293596-.23349754-.2293596z"/><path d="m2.08985222 9.14128079c-.01359606-.09497537-.08197045-.16078818-.16551724-.16078818-.08453202 0-.15448276.06778325-.16571429.16078818 0 .00078818-.39172414 3.57852221-.39172414 3.57852221l.39172414 3.4999014c.01123153.093399.08118227.1615764.16571429.1615764.08354679 0 .15192118-.0662069.16512315-.1607882l.44591133-3.5006896z"/><path d="m.45103448 10.3507389c-.08315271 0-.14896551.0644335-.15980295.1560591l-.29123153 2.213005.29123153 2.1755665c.01083744.0916256.07665024.1554679.15980295.1554679.08039409 0 .14600986-.0630541.15901478-.1546798v-.0003941.0003941l.34541872-2.1763546-.34541872-2.2137931c-.01241379-.0912316-.07862069-.155271-.15901478-.155271z"/></g></svg>

<svg width="40px" height="40px" viewBox="0 0 40 40" version="1.1" xmlns="http://www.w3.org/2000/svg" xmlns:xlink="http://www.w3.org/1999/xlink">
  <g id="soundcloud" stroke="none" stroke-width="1" fill="none" fill-rule="evenodd">
    <g transform="translate(0.000000, 10.000000)" fill="#FFFFFF">
      <path d="M8.26325123,5.84 C8.10226601,5.84 7.96965517,5.97142857 7.9617734,6.13871921 L7.65004926,12.7233498 L7.9617734,16.9785222 C7.96965517,17.1444335 8.10226601,17.2760591 8.26325123,17.2760591 C8.42305419,17.2760591 8.55527094,17.1444335 8.56492611,16.9775369 L8.56492611,16.9785222 L8.91763547,12.7233498 L8.56492611,6.13871921 C8.55527094,5.97142857 8.42305419,5.84 8.26325123,5.84 Z"></path>
      <path d="M19.8305419,1.14837438 C19.5361576,1.14837438 19.2943842,1.39034483 19.2900493,1.6870936 L19.0691626,12.72867 L19.2904433,16.7361576 C19.2943842,17.0285714 19.5361576,17.2703448 19.8305419,17.2703448 C20.1239409,17.2703448 20.3657143,17.0285714 20.3698522,16.7318227 L20.3698522,16.7365517 L20.6100493,12.72867 L20.3698522,1.68630542 C20.3657143,1.39034483 20.1239409,1.14837438 19.8305419,1.14837438 Z"></path>
      <path d="M34.9485714,7.50226601 C34.2770443,7.50226601 33.6362562,7.63842365 33.0528079,7.88275862 C32.6624631,3.46522167 28.9582266,0 24.439803,0 C23.3339901,0 22.2565517,0.217536946 21.3044335,0.586009852 C20.9341872,0.729064039 20.8360591,0.876453202 20.8325123,1.16216749 L20.8325123,16.7188177 C20.8364532,17.0189163 21.0687685,17.2687685 21.3617734,17.2981281 C21.3743842,17.2995074 34.8610837,17.3062069 34.9485714,17.3062069 C37.6555665,17.3062069 39.8500493,15.11133 39.8500493,12.4039409 C39.8500493,9.69674877 37.6555665,7.50226601 34.9485714,7.50226601 Z"></path>
      <path d="M13.5558621,16.8851232 L13.5558621,16.8831527 L13.8384236,12.7255172 L13.5558621,3.66463054 C13.5491626,3.43921182 13.3716256,3.26305419 13.1523153,3.26305419 C12.9322167,3.26305419 12.7546798,3.43921182 12.7483744,3.66463054 L12.4973399,12.7255172 L12.7487685,16.8847291 C12.7546798,17.1071921 12.9322167,17.2833498 13.1523153,17.2833498 C13.3716256,17.2833498 13.5481773,17.1071921 13.5558621,16.8835468 L13.5558621,16.8851232 Z"></path>
      <path d="M9.88039409,17.2837438 C10.0595074,17.2837438 10.2072906,17.137931 10.2159606,16.95133 L10.5450246,12.7241379 L10.2159606,4.63389163 C10.2072906,4.4470936 10.0595074,4.30108374 9.88039409,4.30108374 C9.69950739,4.30108374 9.55231527,4.4470936 9.54423645,4.63389163 C9.54423645,4.63408867 9.25280788,12.7241379 9.25280788,12.7241379 L9.54463054,16.9529064 C9.55231527,17.137931 9.69950739,17.2837438 9.88039409,17.2837438 Z"></path>
      <path d="M16.4762562,3.74955665 C16.2165517,3.74955665 16.009064,3.95586207 16.0039409,4.21931034 L15.7931034,12.7266995 L16.0039409,16.8200985 C16.009064,17.0809852 16.2165517,17.2868966 16.4762562,17.2868966 C16.7349754,17.2868966 16.9416749,17.0809852 16.9473892,16.8173399 L16.9473892,16.8208867 L17.1838424,12.7270936 L16.9473892,4.21871921 C16.9416749,3.95586207 16.7349754,3.74955665 16.4762562,3.74955665 Z"></path>
      <path d="M3.48965517,17.0074877 C3.59330049,17.0074877 3.67704433,16.9255172 3.68926108,16.8124138 L4.11172414,12.7205911 L3.68965517,8.47408867 C3.67704433,8.36078818 3.59330049,8.27881773 3.48965517,8.27881773 C3.38463054,8.27881773 3.30029557,8.36118227 3.28985222,8.47408867 C3.28985222,8.47448276 2.91802956,12.7205911 2.91802956,12.7205911 L3.28985222,16.8112315 C3.30029557,16.9255172 3.38463054,17.0074877 3.48965517,17.0074877 Z"></path>
      <path d="M6.65931034,17.2405911 C6.80137931,17.2405911 6.91605911,17.1270936 6.92669951,16.9775369 L7.30285714,12.7213793 L6.92669951,8.6729064 C6.9164532,8.5235468 6.8017734,8.41064039 6.65931034,8.41064039 C6.51527094,8.41064039 6.40059113,8.52394089 6.39152709,8.67448276 L6.06009852,12.7213793 L6.39152709,16.9771429 C6.40059113,17.1270936 6.51527094,17.2405911 6.65931034,17.2405911 Z"></path>
      <path d="M14.8078818,17.2792118 C15.0463054,17.2792118 15.2390148,17.0874877 15.2453202,16.8435468 L15.2453202,16.8465025 L15.5052217,12.7263054 L15.2453202,3.89635468 C15.2390148,3.6520197 15.0463054,3.46108374 14.8078818,3.46108374 C14.5676847,3.46108374 14.3751724,3.65241379 14.3698522,3.89635468 L14.1387192,12.7263054 L14.3702463,16.8455172 C14.3751724,17.0874877 14.5676847,17.2792118 14.8078818,17.2792118 Z"></path>
      <path d="M18.1568473,17.2953695 C18.430936,17.2953695 18.6575369,17.0689655 18.6624631,16.7915271 L18.6624631,16.7946798 L18.6624631,16.7915271 L18.8758621,12.7278818 L18.6624631,2.6035468 C18.657734,2.32610837 18.430936,2.10009852 18.1568473,2.10009852 C17.8821675,2.10009852 17.6553695,2.32610837 17.6514286,2.60413793 L17.4604926,12.724532 C17.4604926,12.7310345 17.6514286,16.7942857 17.6514286,16.7942857 C17.6553695,17.0689655 17.8821675,17.2953695 18.1568473,17.2953695 Z"></path>
      <path d="M11.5099507,17.2752709 C11.7091626,17.2752709 11.871133,17.1144828 11.8796059,16.9085714 L12.1856158,12.7249261 L11.8796059,3.95921182 C11.8715271,3.75330049 11.7091626,3.59251232 11.5099507,3.59251232 C11.3091626,3.59251232 11.146798,3.75369458 11.1400985,3.95960591 C11.1400985,3.96 10.8687685,12.7249261 10.8687685,12.7249261 L11.1400985,16.9101478 C11.146798,17.1140887 11.3091626,17.2752709 11.5099507,17.2752709 Z"></path>
      <path d="M5.06817734,8.12847291 C4.94482759,8.12847291 4.84394089,8.22719212 4.83428571,8.35862069 L4.48275862,12.7213793 L4.83428571,16.942069 C4.84394089,17.0725123 4.94482759,17.1714286 5.06817734,17.1714286 C5.19054187,17.1714286 5.29083744,17.0725123 5.30167488,16.942069 L5.70108374,12.7213793 L5.30167488,8.35783251 C5.29083744,8.22719212 5.19054187,8.12847291 5.06817734,8.12847291 Z"></path>
      <path d="M2.08985222,9.14128079 C2.07625616,9.04630542 2.00788177,8.98049261 1.92433498,8.98049261 C1.83980296,8.98049261 1.76985222,9.04827586 1.75862069,9.14128079 C1.75862069,9.14206897 1.36689655,12.719803 1.36689655,12.719803 L1.75862069,16.2197044 C1.76985222,16.3131034 1.83980296,16.3812808 1.92433498,16.3812808 C2.00788177,16.3812808 2.07625616,16.3150739 2.08945813,16.2204926 L2.53536946,12.719803 L2.08985222,9.14128079 Z"></path>
      <path d="M0.451034483,10.3507389 C0.367881773,10.3507389 0.302068966,10.4151724 0.291231527,10.506798 L0,12.719803 L0.291231527,14.8953695 C0.302068966,14.9869951 0.367881773,15.0508374 0.451034483,15.0508374 C0.531428571,15.0508374 0.597044335,14.9877833 0.610049261,14.8961576 L0.610049261,14.8957635 C0.610049261,14.8957635 0.610049261,14.8957635 0.610049261,14.8961576 L0.95546798,12.719803 L0.610049261,10.5060099 C0.597635468,10.4147783 0.531428571,10.3507389 0.451034483,10.3507389 Z"></path>
    </g>
  </g>
</svg>
